; generated by PrusaSlicer 2.6.0+win64 on 2023-08-07 at 17:36:42 UTC


;
;

;
;
; 

; external perimeters extrusion width = 0.45mm
; perimeters extrusion width = 0.45mm
; infill extrusion width = 0.45mm
; solid infill extrusion width = 0.45mm
; top infill extrusion width = 0.40mm
; first layer extrusion width = 0.40mm

; external perimeters extrusion width = 0.45mm
; perimeters extrusion width = 0.45mm
; infill extrusion width = 0.45mm
; solid infill extrusion width = 0.45mm
; top infill extrusion width = 0.40mm
; first layer extrusion width = 0.40mm

M73 P0 R41
;TYPE:Custom
G90 ; use absolute coordinates
M83 ; extruder relative mode
M204 S1250 T1250
M104 S200 ; set extruder temp
M140 S65 ; set bed temp

M190 S65 ; wait for bed temp
M109 S200 ; wait for extruder temp

G28 ; home all
G1 Y1.0 Z0.3 F1000 ; move print head up

G92 E0.0
; initial load
G1 X205.0 E19 F1000
G1 Y1.6
G1 X5.0 E19 F1000
G92 E0.0
; intro line
G1 Y2.0 Z0.2 F1000
M73 P0 R40
G1 X65.0 E9.0 F1000
G1 X105.0 E12.5 F1000
G92 E0.0
G21 ; set units to millimeters
G90 ; use absolute coordinates
M83 ; use relative distances for extrusion
; Filament gcode
M107
;LAYER_CHANGE
;Z:0.2
;HEIGHT:0.2
;BEFORE_LAYER_CHANGE
G92 E0.0
;0.2
M73 P1 R40
G1 E-6 F900
G1 Z.2 F12000
;AFTER_LAYER_CHANGE
;0.2
; printing object Träger1.stl id:0 copy 0
G1 X89.165 Y112.291
G1 E6 F900
M204 S800
;TYPE:Perimeter
;WIDTH:0.399999
G1 F1200
G1 X89.07 Y112.237 E.00324
G1 X88.517 Y112.076 E.0171
G1 X87.942 Y112.045 E.0171
G1 X87.434 Y112.126 E.01527
G1 X39.589 Y125.185 E1.47254
G1 X39.102 Y125.263 E.01464
G1 X38.74 Y125.217 E.01083
G1 X38.402 Y125.079 E.01084
G1 X38.111 Y124.858 E.01085
G1 X37.888 Y124.57 E.01081
G1 X37.747 Y124.233 E.01085
G1 X37.697 Y123.871 E.01085
G1 X37.743 Y123.509 E.01083
G1 X37.881 Y123.172 E.01081
G1 X38.102 Y122.881 E.01085
G1 X38.391 Y122.657 E.01086
G1 X38.761 Y122.502 E.01191
G1 X87.788 Y109.121 E1.50892
G1 X88.302 Y108.977 E.01585
G1 X88.835 Y108.747 E.01724
G1 X89.302 Y108.4 E.01727
G1 X89.677 Y107.955 E.01728
G1 X89.94 Y107.436 E.01728
G1 X90.07 Y106.933 E.01543
G1 X98.995 Y45.702 E1.83724
G1 X99.22 Y44.756 E.02887
G1 X99.599 Y43.888 E.02812
G1 X100.125 Y43.103 E.02806
G1 X100.818 Y42.397 E.02937
G1 X101.554 Y41.867 E.02693
G1 X102.408 Y41.459 E.0281
G1 X103.322 Y41.209 E.02813
G1 X104.29 Y41.122 E.02886
G1 X127.802 Y41.126 E.6981
G1 X128.709 Y41.205 E.02703
G1 X129.605 Y41.445 E.02754
G1 X130.445 Y41.837 E.02752
G1 X131.205 Y42.369 E.02754
G1 X131.861 Y43.025 E.02755
G1 X132.393 Y43.784 E.02752
G1 X132.733 Y44.514 E.02391
G1 X132.905 Y45.073 E.01737
G1 X133.036 Y45.643 E.01737
G1 X133.108 Y46.531 E.02645
G1 X133.108 Y163.531 E3.47388
G1 X133.025 Y164.479 E.02825
G1 X132.785 Y165.375 E.02754
G1 X132.393 Y166.215 E.02752
G1 X131.861 Y166.975 E.02754
G1 X131.206 Y167.631 E.02752
G1 X130.446 Y168.163 E.02754
G1 X129.605 Y168.555 E.02755
G1 X128.709 Y168.795 E.02754
G1 X127.761 Y168.878 E.02825
G1 X95.96 Y168.878 E.94421
G1 X95.011 Y168.795 E.02828
M73 P2 R40
G1 X94.116 Y168.555 E.02751
G1 X93.275 Y168.163 E.02755
G1 X92.515 Y167.631 E.02754
G1 X91.861 Y166.976 E.02748
G1 X91.311 Y166.179 E.02875
G1 X90.936 Y165.375 E.02634
G1 X90.695 Y164.479 E.02755
G1 X90.613 Y163.531 E.02825
G1 X90.613 Y114.554 E1.45419
G1 X90.509 Y113.867 E.02063
G1 X90.321 Y113.386 E.01533
G1 X89.997 Y112.91 E.0171
G1 X89.572 Y112.52 E.01713
G1 X89.218 Y112.32 E.01207
M204 S1000
G1 X88.999 Y112.594 F12000
M204 S800
;TYPE:External perimeter
G1 F1200
G1 X88.529 Y112.44 E.01468
G1 X88.036 Y112.397 E.01469
G1 X87.528 Y112.471 E.01524
G1 X39.683 Y125.529 E1.47253
G1 X39.104 Y125.623 E.01742
G1 X38.648 Y125.565 E.01365
G1 X38.223 Y125.392 E.01362
G1 X37.858 Y125.114 E.01362
G1 X37.577 Y124.751 E.01363
G1 X37.399 Y124.328 E.01363
G1 X37.337 Y123.873 E.01363
G1 X37.395 Y123.418 E.01362
G1 X37.569 Y122.993 E.01364
G1 X37.846 Y122.627 E.01363
G1 X38.209 Y122.346 E.01363
G1 X38.645 Y122.164 E.01403
G1 X88.133 Y108.657 E1.52311
G1 X88.593 Y108.475 E.01469
G1 X89.004 Y108.191 E.01483
G1 X89.339 Y107.82 E.01484
G1 X89.579 Y107.382 E.01483
G1 X89.717 Y106.882 E.0154
G1 X98.644 Y45.635 E1.83771
G1 X98.88 Y44.642 E.0303
G1 X99.285 Y43.716 E.03001
G1 X99.847 Y42.877 E.02998
G1 X100.585 Y42.125 E.03128
G1 X101.371 Y41.559 E.02876
G1 X102.283 Y41.123 E.03001
G1 X103.258 Y40.856 E.03001
G1 X104.274 Y40.765 E.03029
G1 X127.817 Y40.769 E.69902
G1 X128.771 Y40.852 E.02843
G1 X129.727 Y41.108 E.02938
G1 X130.624 Y41.526 E.02938
G1 X131.436 Y42.094 E.02942
G1 X132.136 Y42.794 E.02939
G1 X132.704 Y43.605 E.0294
G1 X133.057 Y44.363 E.02483
G1 X133.25 Y44.981 E.01922
G1 X133.392 Y45.612 E.0192
G1 X133.465 Y46.531 E.02737
G1 X133.465 Y163.546 E3.47432
G1 X133.378 Y164.541 E.02966
G1 X133.122 Y165.497 E.02938
G1 X132.704 Y166.395 E.02941
G1 X132.136 Y167.206 E.0294
G1 X131.436 Y167.906 E.02939
G1 X130.625 Y168.473 E.02938
G1 X129.728 Y168.892 E.0294
G1 X128.772 Y169.148 E.02938
G1 X127.777 Y169.235 E.02966
G1 X95.944 Y169.235 E.94516
G1 X94.949 Y169.148 E.02966
G1 X93.993 Y168.892 E.02938
G1 X93.096 Y168.473 E.0294
G1 X92.285 Y167.906 E.02938
G1 X91.585 Y167.206 E.02939
G1 X91 Y166.357 E.03061
G1 X90.599 Y165.497 E.02817
G1 X90.342 Y164.541 E.02939
G1 X90.255 Y163.546 E.02966
G1 X90.255 Y114.554 E1.45463
G1 X90.202 Y114.083 E.01407
M73 P3 R40
G1 X90.04 Y113.616 E.01468
G1 X89.775 Y113.198 E.01469
G1 X89.457 Y112.885 E.01325
G1 X89.05 Y112.626 E.01432
M204 S1000
G1 X88.963 Y112.196 F12000
G1 E-3.6 F900
;WIPE_START
G1 F9600
G1 X88.529 Y112.44 E-.04927
G1 X88.036 Y112.397 E-.04407
G1 X87.528 Y112.471 E-.04572
G1 X63.038 Y119.155 E-2.26094
;WIPE_END
G1 X94.205 Y108.42 F12000
G1 E6 F900
M204 S800
;TYPE:Perimeter
G1 F1200
G1 X93.915 Y108.23 E.01029
G1 X93.559 Y107.86 E.01525
G1 X93.227 Y107.298 E.01938
G1 X93.079 Y106.782 E.01594
G1 X93.036 Y106.532 E.00753
G1 X93.049 Y105.951 E.01725
G1 X101.775 Y46.081 E1.7964
G1 X101.909 Y45.568 E.01574
G1 X102.183 Y45.036 E.01777
G1 X102.573 Y44.585 E.0177
G1 X103.057 Y44.241 E.01763
G1 X103.612 Y44.017 E.01777
G1 X104.201 Y43.932 E.01767
G1 X127.787 Y43.928 E.7003
G1 X128.368 Y44 E.01738
M73 P3 R39
G1 X128.981 Y44.234 E.01948
G1 X129.442 Y44.565 E.01685
G1 X129.665 Y44.787 E.00934
G1 X129.987 Y45.228 E.01621
G1 X130.194 Y45.727 E.01604
G1 X130.298 Y46.374 E.01946
G1 X130.303 Y46.531 E.00466
G1 X130.303 Y93.976 E1.4087
G1 X130.241 Y94.513 E.01605
G1 X130.042 Y95.083 E.01793
G1 X129.712 Y95.59 E.01796
G1 X129.271 Y96.003 E.01794
G1 X128.745 Y96.299 E.01792
G1 X96.438 Y108.664 E1.02709
G1 X95.873 Y108.804 E.01728
G1 X95.221 Y108.806 E.01936
G1 X94.614 Y108.647 E.01863
G1 X94.257 Y108.449 E.01212
M204 S1000
G1 X94.173 Y107.983 F12000
M204 S800
;TYPE:External perimeter
G1 F1200
G1 X93.816 Y107.612 E.01529
G1 X93.54 Y107.125 E.01662
G1 X93.398 Y106.584 E.01661
G1 X93.402 Y106.002 E.01728
G1 X102.128 Y46.132 E1.7964
G1 X102.263 Y45.634 E.01532
G1 X102.504 Y45.194 E.0149
G1 X102.842 Y44.821 E.01495
G1 X103.256 Y44.537 E.01491
G1 X103.737 Y44.352 E.0153
G1 X104.243 Y44.286 E.01515
G1 X127.787 Y44.285 E.69905
G1 X128.322 Y44.354 E.01602
G1 X128.845 Y44.564 E.01673
G1 X129.295 Y44.902 E.01671
G1 X129.643 Y45.345 E.01673
G1 X129.864 Y45.864 E.01675
G1 X129.944 Y46.42 E.01668
G1 X129.945 Y93.976 E1.412
G1 X129.886 Y94.479 E.01504
G1 X129.708 Y94.957 E.01514
G1 X129.418 Y95.388 E.01542
G1 X129.034 Y95.737 E.01541
G1 X128.578 Y95.983 E.01538
G1 X96.31 Y108.33 E1.02582
G1 X95.79 Y108.456 E.01589
G1 X95.23 Y108.449 E.01663
G1 X94.715 Y108.304 E.01589
G1 X94.222 Y108.017 E.01694
M204 S1000
G1 X93.8 Y108.128 F12000
G1 E-3.6 F900
;WIPE_START
G1 F9600
G1 X93.816 Y107.612 E-.05107
G1 X93.54 Y107.125 E-.04985
G1 X93.398 Y106.584 E-.04981
G1 X93.402 Y106.002 E-.05184
G1 X96.96 Y81.587 E-2.19743
;WIPE_END
G1 X94.461 Y112.524 F12000
G1 E6 F900
M204 S800
;TYPE:Perimeter
G1 F1200
G1 X94.516 Y112.476 E.00217
G1 X94.976 Y112.231 E.01547
G1 X95.758 Y111.928 E.0249
G1 X126.887 Y100.018 E.9896
G1 X127.412 Y99.883 E.0161
G1 X127.999 Y99.866 E.01744
G1 X128.607 Y99.994 E.01845
G1 X129.157 Y100.262 E.01817
G1 X129.622 Y100.652 E.01802
G1 X129.98 Y101.142 E.01802
G1 X130.203 Y101.686 E.01746
G1 X130.303 Y102.368 E.02047
G1 X130.303 Y163.556 E1.81675
G1 X130.231 Y164.138 E.01741
M73 P4 R39
G1 X129.996 Y164.751 E.01949
G1 X129.665 Y165.212 E.01685
G1 X129.443 Y165.435 E.00934
G1 X129.003 Y165.757 E.01619
G1 X128.503 Y165.964 E.01607
G1 X127.857 Y166.067 E.01942
G1 X127.7 Y166.072 E.00466
G1 X95.934 Y166.072 E.94317
G1 X95.353 Y166 E.01738
G1 X94.74 Y165.766 E.01948
G1 X94.278 Y165.435 E.01687
G1 X94.06 Y165.218 E.00913
G1 X93.751 Y164.805 E.01531
G1 X93.526 Y164.273 E.01715
G1 X93.423 Y163.626 E.01945
G1 X93.418 Y163.469 E.00466
G1 X93.418 Y114.554 E1.45235
G1 X93.475 Y114.051 E.01503
G1 X93.65 Y113.524 E.01649
G1 X93.926 Y113.059 E.01606
G1 X94.094 Y112.843 E.00812
G1 X94.416 Y112.563 E.01267
M204 S1000
G1 X94.687 Y112.793 F12000
M204 S800
;TYPE:External perimeter
G1 F1200
G1 X95.143 Y112.547 E.01538
G1 X127.015 Y100.351 E1.01324
G1 X127.541 Y100.224 E.01607
G1 X128.041 Y100.228 E.01485
G1 X128.549 Y100.349 E.01551
G1 X129.006 Y100.587 E.0153
G1 X129.385 Y100.92 E.01498
G1 X129.686 Y101.345 E.01546
G1 X129.869 Y101.813 E.01492
G1 X129.945 Y102.368 E.01663
G1 X129.945 Y163.556 E1.81675
G1 X129.877 Y164.091 E.01601
G1 X129.667 Y164.614 E.01673
G1 X129.328 Y165.065 E.01675
G1 X128.885 Y165.413 E.01673
G1 X128.367 Y165.634 E.01672
G1 X127.7 Y165.715 E.01995
G1 X95.934 Y165.715 E.94317
G1 X95.399 Y165.646 E.01602
G1 X94.876 Y165.436 E.01673
G1 X94.426 Y165.098 E.01671
G1 X94.078 Y164.655 E.01673
G1 X93.856 Y164.136 E.01676
G1 X93.775 Y163.469 E.01995
G1 X93.775 Y114.554 E1.45235
G1 X93.837 Y114.041 E.01534
G1 X94.013 Y113.573 E.01485
G1 X94.303 Y113.142 E.01542
G1 X94.643 Y112.834 E.01362
M204 S1000
G1 X94.65 Y112.395 F12000
G1 E-3.6 F900
;WIPE_START
G1 F9600
G1 X95.143 Y112.547 E-.05135
G1 X119.772 Y103.122 E-2.34865
;WIPE_END
G1 X130.384 Y41.926 F12000
G1 E6 F900
M204 S800
;TYPE:Solid infill
;WIDTH:0.400202
G1 F1200
G1 X131.656 Y43.198 E.05344
G1 X132.16 Y43.919 E.02613
G1 X132.413 Y44.461 E.01777
G1 X129.77 Y41.817 E.11106
G1 X129.513 Y41.697 E.00843
G1 X129.01 Y41.563 E.01546
G1 X132.668 Y45.221 E.15369
G1 X132.761 Y45.568 E.01067
G1 X132.785 Y45.843 E.0082
G1 X128.388 Y41.446 E.18473
G1 X127.834 Y41.397 E.01652
G1 X132.833 Y46.397 E.21005
G1 X132.841 Y46.909 E.01521
G1 X127.325 Y41.393 E.23175
G1 X126.819 Y41.393 E.01503
G1 X132.841 Y47.415 E.25301
G1 X132.841 Y47.92 E.015
G1 X130.362 Y45.441 E.10415
G1 X130.229 Y45.112 E.01054
G1 X130.142 Y44.969 E.00497
G1 X129.755 Y44.475 E.01864
G1 X129.178 Y44.032 E.02161
G1 X128.794 Y43.873 E.01235
G1 X126.314 Y41.393 E.10419
G1 X125.809 Y41.393 E.015
G1 X128.115 Y43.699 E.09688
G1 X127.855 Y43.663 E.0078
G1 X127.573 Y43.663 E.00838
G1 X125.303 Y41.393 E.09537
G1 X124.798 Y41.393 E.015
G1 X127.068 Y43.663 E.09537
G1 X126.562 Y43.663 E.01503
G1 X124.293 Y41.393 E.09535
G1 X123.787 Y41.393 E.01503
G1 X126.057 Y43.663 E.09537
G1 X125.552 Y43.663 E.015
G1 X123.282 Y41.393 E.09537
G1 X122.777 Y41.393 E.015
G1 X125.046 Y43.662 E.09533
G1 X124.541 Y43.662 E.015
G1 X122.271 Y41.393 E.09535
G1 X121.766 Y41.393 E.015
G1 X124.036 Y43.662 E.09535
G1 X123.53 Y43.662 E.01503
G1 X121.261 Y41.393 E.09533
G1 X120.755 Y41.392 E.01503
G1 X123.025 Y43.662 E.09537
G1 X122.52 Y43.662 E.015
G1 X120.25 Y41.392 E.09537
G1 X119.744 Y41.392 E.01503
G1 X122.014 Y43.662 E.09537
G1 X121.509 Y43.662 E.015
G1 X119.239 Y41.392 E.09537
G1 X118.734 Y41.392 E.015
G1 X121.004 Y43.662 E.09537
G1 X120.498 Y43.662 E.01503
G1 X118.228 Y41.392 E.09537
G1 X117.723 Y41.392 E.015
G1 X119.993 Y43.662 E.09537
G1 X119.488 Y43.662 E.015
G1 X117.218 Y41.392 E.09537
G1 X116.712 Y41.392 E.01503
G1 X118.982 Y43.662 E.09537
G1 X118.477 Y43.662 E.015
G1 X116.207 Y41.392 E.09537
G1 X115.702 Y41.392 E.015
G1 X117.972 Y43.662 E.09537
G1 X117.466 Y43.662 E.01503
G1 X115.196 Y41.392 E.09537
G1 X114.691 Y41.391 E.015
G1 X116.961 Y43.662 E.09539
G1 X116.456 Y43.662 E.015
G1 X114.186 Y41.391 E.09539
G1 X113.68 Y41.391 E.01503
M73 P5 R39
G1 X115.95 Y43.661 E.09537
G1 X115.445 Y43.661 E.015
G1 X113.175 Y41.391 E.09537
G1 X112.67 Y41.391 E.015
G1 X114.94 Y43.661 E.09537
G1 X114.434 Y43.661 E.01503
G1 X112.164 Y41.391 E.09537
G1 X111.659 Y41.391 E.015
G1 X113.929 Y43.661 E.09537
G1 X113.424 Y43.661 E.015
G1 X111.153 Y41.391 E.09539
G1 X110.648 Y41.391 E.015
G1 X112.918 Y43.661 E.09537
G1 X112.413 Y43.661 E.015
G1 X110.143 Y41.391 E.09537
G1 X109.637 Y41.391 E.01503
G1 X111.908 Y43.661 E.09539
G1 X111.402 Y43.661 E.01503
G1 X109.132 Y41.391 E.09537
G1 X108.627 Y41.391 E.015
G1 X110.897 Y43.661 E.09537
G1 X110.392 Y43.661 E.015
G1 X108.121 Y41.39 E.09541
G1 X107.616 Y41.39 E.015
G1 X109.886 Y43.661 E.09539
G1 X109.381 Y43.661 E.015
G1 X107.111 Y41.39 E.09539
G1 X106.605 Y41.39 E.01503
G1 X108.876 Y43.661 E.09541
G1 X108.37 Y43.661 E.01503
G1 X106.1 Y41.39 E.09539
G1 X105.595 Y41.39 E.015
G1 X107.865 Y43.661 E.09539
G1 X107.36 Y43.66 E.015
G1 X105.089 Y41.39 E.09539
G1 X104.584 Y41.39 E.015
G1 X106.854 Y43.66 E.09537
G1 X106.349 Y43.66 E.015
G1 X104.1 Y41.412 E.09447
G1 X103.634 Y41.451 E.01389
G1 X105.844 Y43.66 E.09283
G1 X105.338 Y43.66 E.01503
G1 X103.198 Y41.52 E.08991
G1 X102.802 Y41.629 E.0122
G1 X104.833 Y43.66 E.08533
G1 X104.33 Y43.662 E.01494
G1 X102.418 Y41.751 E.08031
G1 X102.077 Y41.914 E.01123
G1 X103.868 Y43.706 E.07527
G1 X103.699 Y43.722 E.00504
G1 X103.449 Y43.792 E.00771
G1 X101.735 Y42.078 E.07201
G1 X101.435 Y42.283 E.01079
G1 X103.083 Y43.931 E.06924
G1 X103.01 Y43.959 E.00232
G1 X102.767 Y44.12 E.00866
G1 X101.141 Y42.494 E.06831
G1 X100.993 Y42.601 E.00543
G1 X100.869 Y42.728 E.00527
G1 X102.464 Y44.322 E.06699
G1 X102.218 Y44.582 E.01063
G1 X100.619 Y42.983 E.06718
G1 X100.368 Y43.238 E.01063
G1 X101.985 Y44.854 E.06792
G1 X101.802 Y45.177 E.01103
G1 X100.159 Y43.534 E.06903
G1 X99.956 Y43.836 E.01081
G1 X101.65 Y45.53 E.07117
G1 X101.541 Y45.926 E.0122
G1 X99.773 Y44.159 E.07426
G1 X99.62 Y44.51 E.01138
G1 X101.464 Y46.355 E.07749
G1 X101.4 Y46.796 E.01324
G1 X99.469 Y44.865 E.08113
G1 X99.372 Y45.273 E.01246
G1 X101.336 Y47.237 E.08251
G1 X101.271 Y47.678 E.01324
G1 X99.275 Y45.681 E.08388
G1 X99.205 Y46.116 E.01309
G1 X101.207 Y48.119 E.08413
G1 X101.143 Y48.56 E.01324
G1 X99.141 Y46.557 E.08413
G1 X99.076 Y46.998 E.01324
G1 X101.079 Y49.001 E.08415
G1 X101.014 Y49.442 E.01324
G1 X99.012 Y47.439 E.08413
G1 X98.948 Y47.88 E.01324
G1 X100.95 Y49.883 E.08413
G1 X100.886 Y50.324 E.01324
G1 X98.883 Y48.321 E.08415
G1 X98.819 Y48.762 E.01324
G1 X100.822 Y50.765 E.08415
G1 X100.757 Y51.206 E.01324
G1 X98.755 Y49.203 E.08413
G1 X98.691 Y49.644 E.01324
G1 X100.693 Y51.647 E.08413
G1 X100.629 Y52.088 E.01324
G1 X98.626 Y50.085 E.08415
G1 X98.562 Y50.526 E.01324
G1 X100.564 Y52.529 E.08413
G1 X100.5 Y52.97 E.01324
G1 X98.498 Y50.967 E.08413
G1 X98.433 Y51.408 E.01324
G1 X100.436 Y53.411 E.08415
G1 X100.372 Y53.852 E.01324
G1 X98.369 Y51.849 E.08415
G1 X98.305 Y52.29 E.01324
G1 X100.307 Y54.293 E.08413
G1 X100.243 Y54.734 E.01324
G1 X98.241 Y52.731 E.08413
G1 X98.176 Y53.172 E.01324
G1 X100.179 Y55.175 E.08415
G1 X100.114 Y55.616 E.01324
G1 X98.112 Y53.613 E.08413
G1 X98.048 Y54.054 E.01324
G1 X100.05 Y56.057 E.08413
G1 X99.986 Y56.498 E.01324
G1 X97.984 Y54.495 E.08413
G1 X97.919 Y54.936 E.01324
G1 X99.922 Y56.939 E.08415
G1 X99.857 Y57.38 E.01324
G1 X97.855 Y55.377 E.08413
G1 X97.791 Y55.818 E.01324
G1 X99.793 Y57.821 E.08413
G1 X99.729 Y58.262 E.01324
G1 X97.726 Y56.259 E.08415
G1 X97.662 Y56.7 E.01324
G1 X99.665 Y58.703 E.08415
G1 X99.6 Y59.144 E.01324
G1 X97.598 Y57.141 E.08413
G1 X97.534 Y57.582 E.01324
G1 X99.536 Y59.585 E.08413
G1 X99.472 Y60.026 E.01324
G1 X97.469 Y58.023 E.08415
G1 X97.405 Y58.464 E.01324
G1 X99.407 Y60.467 E.08413
G1 X99.343 Y60.908 E.01324
G1 X97.341 Y58.905 E.08413
G1 X97.277 Y59.346 E.01324
G1 X99.279 Y61.349 E.08413
G1 X99.215 Y61.79 E.01324
G1 X97.212 Y59.787 E.08415
G1 X97.148 Y60.228 E.01324
G1 X99.15 Y62.231 E.08413
G1 X99.086 Y62.672 E.01324
G1 X97.084 Y60.669 E.08413
G1 X97.019 Y61.11 E.01324
G1 X99.022 Y63.113 E.08415
G1 X98.958 Y63.554 E.01324
G1 X96.955 Y61.551 E.08415
